X:1
T:Title
%%score { ( 1 4 ) | ( 2 3 ) }
L:1/8
M:4/4
K:Bb
V:1 treble nm="Grand Piano"
V:4 treble 
V:2 bass 
V:3 bass 
V:1
 z4 z2[Q:1/4=94] DF | [Fd]<d dd e<e [Fd]>[Ge] |[M:3/4] d2 c2 F2 |[M:1/4] FA | %4
[M:4/4] [Ec]<c =BB c<c [CFA]>[CG_B] |[M:3/4] [C=EA]2 [B,EG]2 [F,A,_Ec]2 |[M:1/4] [=E_d]2 | %7
[M:4/4] [Fd]3 [EA] [Dc][DB][DA][DG] | [CEA]6 [A,EF]2 | [Ge] [A,EG]3 [CFA]2 [A,EG]2 |[M:3/4] [DF]6 | %11
[M:1/4] [DF]2 |[M:4/4] [Fd]3 [EA] [Dc][DB]cd | [Ge]6 [EG][Ge] | d3 d d2 c2 |[M:3/4] [DB]6 |] %16
V:2
 z4 z2 B,D | z/[K:treble] F3/2 FF G<G[K:bass] [B,,B,]>[B,,B,] |[M:3/4] [F,A,F]2 [F,A,E]2 [F,A,E]2 | %3
[M:1/4][K:treble] EF |[M:4/4][K:bass] z/ E3/2 DD E<E F,>F, |[M:3/4] C,2 C,2 F,,2 |[M:1/4] F,2 | %7
[M:4/4] [B,,B,]3 [B,,B,] [B,,F,][B,,F,][B,,B,][B,,B,] | F,F,,A,,C, F,2 F,2 | [F,A,] F,3 F,2 F,2 | %10
[M:3/4] B,,2 D,F, B,2 |[M:1/4] [B,,B,]2 | %12
[M:4/4] [B,,B,]3 [B,,B,] [B,,B,][B,,B,][K:treble][B,E][B,F_A] | [E,B,]6 [E,B,][E,B,] | %14
 [F,B,F]3 [F,B,F] [F,A,F]2 [F,A,E]2 |[M:3/4] [B,,B,]6 |] %16
V:3
 x8 | B,,6[K:treble][K:bass] z2 |[M:3/4] x6 |[M:1/4][K:treble] x2 |[M:4/4][K:bass] F,6 z2 | %5
[M:3/4] x6 |[M:1/4] x2 |[M:4/4] x8 | x8 | x8 |[M:3/4] x6 |[M:1/4] x2 |[M:4/4] x6[K:treble] x2 | %13
 x8 | x8 |[M:3/4] x6 |] %16
V:4
 x8 | x8 |[M:3/4] x6 |[M:1/4] x2 |[M:4/4] x8 |[M:3/4] x6 |[M:1/4] x2 |[M:4/4] x8 | x8 | x8 | %10
[M:3/4] B,4 z2 |[M:1/4] x2 |[M:4/4] x8 | x8 | x8 |[M:3/4] x6 |] %16

